icons/collaboration-user-32.svg

<?xml version="1.0" encoding="UTF-8"?><svg id="icons" xmlns="http://www.w3.org/2000/svg" viewBox="0 0 32 32"><defs><style>.cls-1{fill:none;}.cls-2{fill:#231f20;}</style></defs><rect class="cls-1" width="32" height="32"/><path class="cls-2" d="M10.5,11c2.48145,0,4.5-2.01855,4.5-4.5s-2.01855-4.5-4.5-4.5-4.48999,2.01855-4.48999,4.5,2.00854,4.5,4.48999,4.5Zm0-8c1.92969,0,3.5,1.57031,3.5,3.5s-1.57031,3.5-3.5,3.5-3.5-1.57031-3.5-3.5,1.57031-3.5,3.5-3.5Zm2.5,20H2v-5.5c0-3.03223,2.46729-5.5,5.5-5.5h6c1.78033,0,3.36108,.85425,4.36694,2.1701-.29816,.16486-.58374,.34833-.86102,.54352-.82513-1.03577-2.08167-1.71362-3.50592-1.71362H7.5c-2.48145,0-4.5,2.01855-4.5,4.5v4.5H13v1Zm6-5.99335v-1.1051c-2.81567,1.17798-4.7998,3.96008-4.7998,7.19806,0,.09039,.0105,.1781,.01355,.26776-.42639,.25818-.76917,.63586-.97949,1.09143-.14679,.31799-.23425,.66858-.23425,1.0412,0,.91498,.49939,1.70819,1.23474,2.14392,.37256,.22076,.8017,.35608,1.26526,.35608,1.3786,0,2.40002-1.12146,2.40002-2.5s-1.02142-2.5-2.40002-2.5c-.10144,0-.19794,.01819-.29626,.02997,.02692-2.64172,1.56897-4.92194,3.79626-6.02332Zm-3.5,6.99335c.82715,0,1.5,.67285,1.5,1.5s-.67285,1.5-1.5,1.5-1.5-.67285-1.5-1.5,.67285-1.5,1.5-1.5Zm7-6c.89142,0,1.66968-.4726,2.11237-1.17664,1.81866,.75989,3.23688,2.28821,3.85193,4.17664h1.04022c-.65009-2.3197-2.34259-4.20581-4.5437-5.11279,.01996-.12708,.03918-.25464,.03918-.38721,0-1.34418-1.06836-2.43573-2.39948-2.48981-.03412-.0014-.0661-.01019-.10052-.01019-.01141,0-.02197,.00317-.03339,.00336-1.36285,.01837-2.46661,1.12946-2.46661,2.49664,0,1.37854,1.1214,2.5,2.5,2.5Zm0-4c.82715,0,1.5,.67285,1.5,1.5s-.67285,1.5-1.5,1.5-1.5-.67285-1.5-1.5,.67285-1.5,1.5-1.5Zm9.10553,10.30365c-.39618-.77277-1.16254-1.30365-2.10553-1.30365-1.3786,0-2.5,1.1214-2.5,2.5,0,.57947,.20624,1.10669,.53839,1.53113-1.23358,1.73315-3.25391,2.86926-5.53839,2.86926-1.61517,0-3.09869-.56842-4.26642-1.51263l-.71149,.71149c1.35175,1.12372,3.08691,1.80115,4.97791,1.80115,2.58893,0,4.88074-1.27307,6.30029-3.22083,.35779,.19781,.76276,.32043,1.19971,.32043,.1615,0,.31702-.01831,.46765-.04773,1.13519-.2215,1.93237-1.23523,1.93237-2.45227,0-.43561-.11151-.83936-.29449-1.19635Zm-2.10553,2.69635c-.82715,0-1.5-.67285-1.5-1.5s.67285-1.5,1.5-1.5,1.5,.67285,1.5,1.5-.67285,1.5-1.5,1.5Z"/></svg>

<svg xmlns="http://www.w3.org/2000/svg" viewBox="0 0 32 32"><path fill="none" d="M0 0h32v32H0z"/><path d="M10.5 11c2.481 0 4.5-2.019 4.5-4.5S12.981 2 10.5 2 6.01 4.019 6.01 6.5 8.019 11 10.5 11zm0-8C12.43 3 14 4.57 14 6.5S12.43 10 10.5 10 7 8.43 7 6.5 8.57 3 10.5 3zM13 23H2v-5.5C2 14.468 4.467 12 7.5 12h6c1.78 0 3.361.854 4.367 2.17a9.4 9.4 0 0 0-.861.544C16.18 13.678 14.924 13 13.5 13h-6A4.505 4.505 0 0 0 3 17.5V22h10v1zm6-5.993v-1.105c-2.816 1.178-4.8 3.96-4.8 7.198 0 .09.01.178.014.267A2.504 2.504 0 0 0 13 25.5c0 .915.5 1.708 1.235 2.144.372.22.801.356 1.265.356 1.379 0 2.4-1.121 2.4-2.5S16.879 23 15.5 23c-.101 0-.198.018-.296.03A6.8 6.8 0 0 1 19 17.007zM15.5 24c.827 0 1.5.673 1.5 1.5s-.673 1.5-1.5 1.5-1.5-.673-1.5-1.5.673-1.5 1.5-1.5zm7-6c.891 0 1.67-.473 2.112-1.177A6.831 6.831 0 0 1 28.464 21h1.04a7.827 7.827 0 0 0-4.543-5.113c.02-.127.039-.254.039-.387a2.498 2.498 0 0 0-2.4-2.49c-.034-.001-.066-.01-.1-.01l-.033.003A2.5 2.5 0 0 0 20 15.5c0 1.379 1.121 2.5 2.5 2.5zm0-4c.827 0 1.5.673 1.5 1.5s-.673 1.5-1.5 1.5-1.5-.673-1.5-1.5.673-1.5 1.5-1.5zm9.106 10.304C31.209 23.53 30.443 23 29.5 23a2.503 2.503 0 0 0-2.5 2.5c0 .58.206 1.107.538 1.531A6.79 6.79 0 0 1 22 29.901a6.764 6.764 0 0 1-4.266-1.513l-.712.711A7.763 7.763 0 0 0 22 30.9c2.589 0 4.88-1.273 6.3-3.22.358.197.763.32 1.2.32.162 0 .317-.018.468-.048 1.135-.221 1.932-1.235 1.932-2.452 0-.436-.111-.84-.294-1.196zM29.5 27c-.827 0-1.5-.673-1.5-1.5s.673-1.5 1.5-1.5 1.5.673 1.5 1.5-.673 1.5-1.5 1.5z" fill="#231f20"/></svg>
